X:954
T:Morag of Dunveggan
C:Joe Buchanan's Scottish Tome - Page 557.3
I:557 3
Z:Carl Allison
R:Waltz
L:1/4
M:3/4
K:D
"D"F2 F | "Bm"(F E) D | "D"(F A2) | A3 | "G"d2 d | "G"(d c) d | (B2 A) | "D"A3 | 
F2 F | "Bm"(F E) F | "G"(B2 A) | "D"A3 | "G"(B2 d) | (B A F) | "A7"E3 | "D"D3 | 
"G"d3 | (d2 B) | "D"(A2 D) | D3 | F2 F | (F E) F | "G"(B2 A) | "D"A3 | 
"G"d3 | (d2 B) | "D"(A2 D) | "D"(D2 E) | "D"F2 F | (A2 F) | "A"E3 | "D"D3 |] 

